;FLAVOR:Marlin
;TIME:1141
;Filament used: 1.61155m
;Layer height: 0.32
;MINX:104.901
;MINY:104.9
;MINZ:0.32
;MAXX:120.095
;MAXY:120.095
;MAXZ:29.12
;TARGET_MACHINE.NAME:Creality Ender-5
;Generated with Cura_SteamEngine 5.7.1
M140 S50
M105
M190 S50
M104 S200
M105
M109 S200
M82 ;absolute extrusion mode
M201 X500.00 Y500.00 Z100.00 E5000.00 ;Setup machine max acceleration
M203 X500.00 Y500.00 Z10.00 E50.00 ;Setup machine max feedrate
M204 P500.00 R1000.00 T500.00 ;Setup Print/Retract/Travel acceleration
M205 X8.00 Y8.00 Z0.40 E5.00 ;Setup Jerk
M220 S100 ;Reset Feedrate
M221 S100 ;Reset Flowrate

G28 ;Home

G92 E0 ;Reset Extruder
G1 Z2.0 F3000 ;Move Z Axis up
G1 X10.1 Y20 Z0.28 F5000.0 ;Move to start position
G1 X10.1 Y200.0 Z0.28 F1500.0 E15 ;Draw the first line
G1 X10.4 Y200.0 Z0.28 F5000.0 ;Move to side a little
G1 X10.4 Y20 Z0.28 F1500.0 E30 ;Draw the second line
G92 E0 ;Reset Extruder
G1 Z2.0 F3000 ;Move Z Axis up

G92 E0
G92 E0
G1 F2700 E-5
;LAYER_COUNT:91
;LAYER:0
M107
G0 F6000 X110.922 Y110.827 Z0.32
;TYPE:SKIRT
G1 F2700 E0
G1 F1200 X111.089 Y110.683 E0.02347
G1 X111.232 Y110.582 E0.0421
G1 X111.426 Y110.467 E0.06611
G1 X111.608 Y110.379 E0.08762
G1 X111.774 Y110.315 E0.10656
G1 X111.969 Y110.261 E0.12809
G1 X112.171 Y110.222 E0.14999
G1 X112.355 Y110.204 E0.16967
G1 X112.569 Y110.2 E0.19245
G1 X112.759 Y110.214 E0.21272
G1 X112.961 Y110.246 E0.23449
G1 X113.141 Y110.289 E0.25419
G1 X113.334 Y110.357 E0.27597
G1 X113.526 Y110.44 E0.29823
G1 X113.684 Y110.528 E0.31748
G1 X113.85 Y110.639 E0.33873
G1 X114.017 Y110.773 E0.36152
G1 X114.159 Y110.907 E0.3823
G1 X114.287 Y111.053 E0.40297
G1 X114.4 Y111.204 E0.42304
G1 X114.518 Y111.395 E0.44694
G1 X115.066 Y112.496 E0.57783
G1 X114.517 Y113.599 E0.70896
G1 X114.408 Y113.777 E0.73118
G1 X114.293 Y113.932 E0.75172
G1 X114.159 Y114.087 E0.77353
G1 X114.006 Y114.234 E0.79611
G1 X113.867 Y114.346 E0.81511
G1 X113.697 Y114.459 E0.83683
G1 X113.526 Y114.554 E0.85765
G1 X113.33 Y114.64 E0.88043
G1 X113.161 Y114.699 E0.89949
G1 X112.961 Y114.749 E0.92143
G1 X112.769 Y114.779 E0.94211
G1 X112.568 Y114.794 E0.96356
G1 X112.366 Y114.79 E0.98507
G1 X112.166 Y114.771 E1.00645
G1 X111.977 Y114.735 E1.02693
G1 X111.793 Y114.683 E1.04728
G1 X111.596 Y114.61 E1.06964
G1 X111.434 Y114.533 E1.08873
G1 X111.241 Y114.417 E1.11269
G1 X111.078 Y114.303 E1.13386
G1 X110.938 Y114.183 E1.15349
G1 X110.797 Y114.04 E1.17486
G1 X110.671 Y113.886 E1.19604
G1 X110.555 Y113.719 E1.21768
G1 X110.461 Y113.555 E1.2378
G1 X110.374 Y113.368 E1.25975
G1 X110.305 Y113.179 E1.28117
G1 X110.256 Y112.994 E1.30154
G1 X110.22 Y112.788 E1.32379
G1 X110.204 Y112.606 E1.34324
G1 X110.204 Y112.401 E1.36506
G1 X110.221 Y112.203 E1.38621
G1 X110.253 Y112.015 E1.40651
G1 X110.306 Y111.815 E1.42853
G1 X110.375 Y111.623 E1.45024
G1 X110.456 Y111.448 E1.47077
G1 X110.554 Y111.277 E1.49174
G1 X110.672 Y111.103 E1.51412
G1 X110.793 Y110.959 E1.53414
G1 X110.922 Y110.827 E1.55378
G0 F6000 X111.481 Y111.4
G1 F1200 X111.581 Y111.315 E1.56775
G1 X111.666 Y111.255 E1.57882
G1 X111.811 Y111.168 E1.59682
G1 X111.921 Y111.116 E1.60977
G1 X112.019 Y111.078 E1.62096
G1 X112.164 Y111.037 E1.637
G1 X112.28 Y111.015 E1.64956
G1 X112.399 Y111.003 E1.66229
G1 X112.549 Y111.001 E1.67826
G1 X112.666 Y111.009 E1.69074
G1 X112.804 Y111.031 E1.70561
G1 X112.915 Y111.058 E1.71777
G1 X113.052 Y111.106 E1.73322
G1 X113.168 Y111.156 E1.74667
G1 X113.264 Y111.21 E1.75839
G1 X113.383 Y111.289 E1.77359
G1 X113.485 Y111.371 E1.78752
G1 X113.582 Y111.462 E1.80168
G1 X113.663 Y111.555 E1.8148
G1 X113.742 Y111.66 E1.82879
G1 X113.815 Y111.779 E1.84365
G1 X114.173 Y112.496 E1.92894
G1 X113.818 Y113.21 E2.01381
G1 X113.74 Y113.335 E2.02949
G1 X113.669 Y113.432 E2.04229
G1 X113.582 Y113.532 E2.05639
G1 X113.48 Y113.629 E2.07137
G1 X113.386 Y113.706 E2.08431
G1 X113.285 Y113.772 E2.09715
G1 X113.172 Y113.836 E2.11097
G1 X113.033 Y113.897 E2.12713
G1 X112.936 Y113.93 E2.13803
G1 X112.798 Y113.965 E2.15318
G1 X112.68 Y113.983 E2.16589
G1 X112.546 Y113.993 E2.18019
G1 X112.41 Y113.991 E2.19467
G1 X112.287 Y113.979 E2.20782
G1 X112.149 Y113.953 E2.22277
G1 X112.042 Y113.923 E2.23459
G1 X111.914 Y113.875 E2.24914
G1 X111.809 Y113.825 E2.26152
G1 X111.676 Y113.745 E2.27804
G1 X111.571 Y113.672 E2.29165
G1 X111.483 Y113.596 E2.30403
G1 X111.385 Y113.496 E2.31893
G1 X111.304 Y113.397 E2.33254
G1 X111.232 Y113.292 E2.34609
G1 X111.175 Y113.192 E2.35834
G1 X111.114 Y113.061 E2.37372
G1 X111.068 Y112.934 E2.3881
G1 X111.039 Y112.825 E2.4001
G1 X111.014 Y112.684 E2.41535
G1 X111.004 Y112.57 E2.42753
G1 X111.004 Y112.436 E2.44179
G1 X111.015 Y112.311 E2.45514
G1 X111.037 Y112.182 E2.46907
G1 X111.073 Y112.046 E2.48404
G1 X111.116 Y111.926 E2.49761
G1 X111.164 Y111.821 E2.5099
G1 X111.237 Y111.694 E2.52549
G1 X111.307 Y111.592 E2.53866
G1 X111.388 Y111.495 E2.55211
G1 X111.481 Y111.4 E2.56626
G0 F6000 X112.018 Y111.995
G1 F1200 X112.077 Y111.944 E2.57456
G1 X112.111 Y111.92 E2.57899
G1 X112.183 Y111.877 E2.58791
G1 X112.234 Y111.853 E2.59391
G1 X112.273 Y111.838 E2.59836
G1 X112.348 Y111.817 E2.60665
G1 X112.401 Y111.807 E2.61239
G1 X112.443 Y111.803 E2.61688
G1 X112.529 Y111.801 E2.62603
G1 X112.572 Y111.804 E2.63062
G1 X112.649 Y111.817 E2.63893
G1 X112.69 Y111.826 E2.6434
G1 X112.753 Y111.849 E2.65054
G1 X112.819 Y111.877 E2.65817
G1 X112.851 Y111.895 E2.66208
G1 X112.904 Y111.931 E2.6689
G1 X112.96 Y111.975 E2.67648
G1 X113.004 Y112.017 E2.68295
G1 X113.04 Y112.058 E2.68876
G1 X113.079 Y112.11 E2.69568
G1 X113.115 Y112.169 E2.70303
G1 X113.278 Y112.496 E2.74192
G1 X113.118 Y112.819 E2.78028
G1 X113.074 Y112.89 E2.78917
G1 X113.044 Y112.93 E2.7945
G1 X112.999 Y112.982 E2.80181
G1 X112.954 Y113.025 E2.80844
G1 X112.906 Y113.065 E2.81509
G1 X112.877 Y113.084 E2.81878
G1 X112.813 Y113.12 E2.82659
G1 X112.753 Y113.146 E2.83355
G1 X112.701 Y113.164 E2.83941
G1 X112.634 Y113.181 E2.84677
G1 X112.591 Y113.188 E2.8514
G1 X112.525 Y113.192 E2.85844
G1 X112.452 Y113.191 E2.86621
G1 X112.395 Y113.186 E2.8723
G1 X112.34 Y113.175 E2.87827
G1 X112.291 Y113.162 E2.88367
G1 X112.226 Y113.137 E2.89108
G1 X112.18 Y113.115 E2.89651
G1 X112.116 Y113.077 E2.90443
G1 X112.058 Y113.036 E2.91199
G1 X112.035 Y113.017 E2.91516
G1 X111.986 Y112.967 E2.92261
G1 X111.947 Y112.919 E2.9292
G1 X111.903 Y112.856 E2.93738
G1 X111.884 Y112.821 E2.94161
G1 X111.853 Y112.755 E2.94938
G1 X111.833 Y112.699 E2.9557
G1 X111.821 Y112.653 E2.96076
G1 X111.808 Y112.582 E2.96845
G1 X111.804 Y112.533 E2.97368
G1 X111.804 Y112.47 E2.98038
G1 X111.809 Y112.407 E2.98711
G1 X111.819 Y112.351 E2.99316
G1 X111.836 Y112.288 E3.00011
G1 X111.857 Y112.229 E3.00678
G1 X111.877 Y112.185 E3.01192
G1 X111.91 Y112.127 E3.01902
G1 X111.95 Y112.069 E3.02652
G1 X111.976 Y112.038 E3.03083
G1 X112.018 Y111.995 E3.03722
G1 F2700 E-1.96278
;MESH:motor shaft adapter.STL
G0 F6000 X111.97 Y116.093
G0 X111.769 Y117.563
G0 X112.5 Y118.796
G0 X112.5 Y119.169
;TYPE:WALL-INNER
G1 F2700 E3.03722
G1 F913.4 X113.007 Y119.149 E3.10817
G1 X113.51 Y119.093 E3.17894
G1 X114.021 Y118.992 E3.25177
G1 F914.3 X114.479 Y118.87 E3.31798
G1 F915.2 X114.999 Y118.684 E3.39505
G1 X115.423 Y118.495 E3.45984
G1 X115.891 Y118.242 E3.53409
G1 F914.3 X116.306 Y117.976 E3.60295
G1 F913.4 X116.694 Y117.683 E3.67093
G1 F914.3 X117.08 Y117.345 E3.7426
G1 X117.438 Y116.98 E3.81402
G1 F916 X117.784 Y116.566 E3.88925
G1 X118.061 Y116.184 E3.95504
G1 F915.2 X118.436 Y115.569 E4.05557
G1 X117.206 Y115.568 E4.22722
G1 F916 X116.924 Y115.969 E4.29557
G1 F916.9 X116.549 Y116.395 E4.37463
G1 X116.202 Y116.726 E4.44143
G1 F917.8 X115.85 Y117.014 E4.50472
G1 X115.44 Y117.292 E4.57365
G1 X115.048 Y117.511 E4.63614
G1 F916 X114.582 Y117.722 E4.70746
G1 F915.2 X114.155 Y117.871 E4.77058
G1 F916 X113.616 Y118.007 E4.84808
G1 F916.9 X113.141 Y118.084 E4.91511
G1 X112.681 Y118.115 E4.97933
G1 F916 X112.085 Y118.104 E5.06245
G1 F915.2 X111.657 Y118.057 E5.12254
G1 F914.3 X111.226 Y117.977 E5.18377
G1 F915.2 X110.689 Y117.82 E5.26185
G1 F916 X110.275 Y117.661 E5.32369
G1 X109.849 Y117.455 E5.38966
G1 F915.2 X109.395 Y117.183 E5.46352
G1 F914.3 X108.971 Y116.873 E5.53689
G1 X108.642 Y116.588 E5.5977
G1 F915.2 X108.334 Y116.275 E5.65898
G1 X107.989 Y115.854 E5.73495
G1 F916 X107.717 Y115.455 E5.80227
G1 F916.9 X107.495 Y115.066 E5.86466
G1 F916 X107.302 Y114.643 E5.92949
G1 X107.137 Y114.198 E5.99566
G1 X106.998 Y113.672 E6.07152
G1 F915.2 X106.925 Y113.248 E6.13156
G1 X106.883 Y112.793 E6.19533
G1 F914.3 X106.881 Y112.243 E6.27216
G1 F915.2 X106.923 Y111.761 E6.33968
G1 F916 X107.001 Y111.312 E6.40322
G1 X107.122 Y110.847 E6.47022
G1 F915.2 X107.277 Y110.401 E6.53611
G1 X107.468 Y109.979 E6.60076
G1 X107.707 Y109.551 E6.66917
G1 X107.978 Y109.148 E6.73695
G1 F916 X108.284 Y108.773 E6.80443
G1 X108.706 Y108.341 E6.88863
G1 X109.076 Y108.031 E6.95593
G1 F914.3 X109.471 Y107.756 E7.02317
G1 X109.802 Y107.559 E7.07698
G1 F915.2 X110.243 Y107.345 E7.14538
G1 X110.668 Y107.177 E7.20916
G1 F916 X111.21 Y107.02 E7.28784
G1 X111.746 Y106.922 E7.36381
G1 X112.131 Y106.884 E7.41775
G1 F915.2 X112.7 Y106.873 E7.49717
G1 F914.3 X113.134 Y106.908 E7.558
G1 F915.2 X113.575 Y106.974 E7.62023
G1 F916 X114.039 Y107.085 E7.68675
G1 F916.9 X114.547 Y107.257 E7.76146
G1 F917.8 X114.986 Y107.45 E7.82819
G1 F916.9 X115.401 Y107.678 E7.89415
G1 F916 X115.793 Y107.936 E7.95958
G1 F916.9 X116.167 Y108.231 E8.02593
G1 F916 X116.517 Y108.56 E8.0929
G1 F915.2 X116.814 Y108.891 E8.15497
G1 F914.3 X117.217 Y109.418 E8.24764
G1 F913.4 X118.417 Y109.418 E8.41543
G1 F912.5 X118.182 Y109.004 E8.48206
G1 X117.901 Y108.577 E8.5536
G1 F913.4 X117.598 Y108.194 E8.62189
G1 F915.2 X117.256 Y107.816 E8.69303
G1 X116.895 Y107.473 E8.76252
G1 X116.504 Y107.157 E8.83269
G1 F914.3 X116.087 Y106.867 E8.90364
G1 F913.4 X115.635 Y106.606 E8.97662
G1 X115.199 Y106.393 E9.04447
G1 X114.72 Y106.204 E9.11647
G1 X114.23 Y106.049 E9.18833
G1 F915.2 X113.743 Y105.94 E9.25798
G1 X113.236 Y105.864 E9.32953
G1 F914.3 X112.751 Y105.825 E9.3975
G1 F913.4 X112.229 Y105.827 E9.47049
G1 X111.722 Y105.868 E9.54161
G1 X111.236 Y105.943 E9.61037
G1 X110.771 Y106.049 E9.67706
G1 X110.244 Y106.216 E9.75435
G1 F914.3 X109.782 Y106.401 E9.82387
G1 X109.276 Y106.651 E9.90272
G1 X108.911 Y106.867 E9.96196
G1 F913.4 X108.497 Y107.156 E10.03256
G1 F914.3 X108.1 Y107.475 E10.1037
G1 F913.4 X107.741 Y107.816 E10.17294
G1 X107.377 Y108.221 E10.24908
G1 F914.3 X107.074 Y108.611 E10.31807
G1 X106.805 Y109.015 E10.38587
G1 F915.2 X106.559 Y109.45 E10.45561
G1 X106.337 Y109.928 E10.52916
G1 F914.3 X106.172 Y110.368 E10.59481
G1 F913.4 X106.023 Y110.888 E10.67044
G1 X105.917 Y111.395 E10.74287
G1 F912.5 X105.853 Y111.872 E10.81023
G1 X105.827 Y112.374 E10.88058
G1 F914.3 X105.836 Y112.864 E10.94904
G1 F915.2 X105.886 Y113.392 E11.02306
G1 X105.969 Y113.876 E11.09159
G1 F914.3 X106.089 Y114.361 E11.16139
G1 F913.4 X106.254 Y114.849 E11.23341
G1 F912.5 X106.448 Y115.312 E11.30367
G1 F913.4 X106.677 Y115.758 E11.37378
G1 X106.949 Y116.201 E11.44646
G1 X107.241 Y116.603 E11.51594
G1 F914.3 X107.558 Y116.98 E11.58474
G1 F915.2 X107.915 Y117.344 E11.6559
G1 F914.3 X108.316 Y117.694 E11.73025
G1 F913.4 X108.711 Y117.988 E11.7991
G1 F912.5 X109.123 Y118.251 E11.86751
G1 X109.574 Y118.493 E11.93915
G1 F913.4 X110.017 Y118.692 E12.00705
G1 F914.3 X110.539 Y118.874 E12.08428
G1 X110.994 Y119 E12.15023
G1 X111.486 Y119.092 E12.22015
G1 F915.2 X111.993 Y119.15 E12.29137
G1 F914.3 X112.5 Y119.169 E12.36224
G0 F6000 X112.5 Y120.095
;TYPE:WALL-OUTER
G1 F1200 X113.077 Y120.072 E12.4237
G1 X113.651 Y120.008 E12.48517
G1 X114.213 Y119.898 E12.54612
G1 X114.753 Y119.753 E12.60563
G1 X115.323 Y119.552 E12.66996
G1 X115.831 Y119.324 E12.72922
G1 X116.342 Y119.05 E12.79093
G1 X116.816 Y118.75 E12.85064
G1 X117.279 Y118.401 E12.91235
G1 X117.716 Y118.017 E12.97427
G1 X118.123 Y117.602 E13.03613
G1 X118.484 Y117.173 E13.09581
G1 X118.83 Y116.697 E13.15844
G1 X119.126 Y116.212 E13.21891
G1 X119.388 Y115.703 E13.27984
G1 F1179.4 X119.596 Y115.17 E13.3418
G1 F1140.1 X119.708 Y114.79 E13.38618
G1 F1125.4 X119.771 Y114.613 E13.4075
G1 F1098.4 X119.887 Y114.04 E13.47548
G1 F1043.5 X119.96 Y113.505 E13.54157
G1 F1005.2 X120 Y112.913 E13.61696
G1 F989.7 X120.009 Y112.323 E13.6931
G1 F993.8 X119.986 Y111.793 E13.76128
G1 F1019.1 X119.928 Y111.227 E13.83259
G1 F1071.4 X119.839 Y110.669 E13.89994
G1 F1132.1 X119.697 Y110.098 E13.96633
G1 F1177.9 X119.511 Y109.568 E14.02723
G1 F1200 X119.259 Y109.027 E14.09075
G1 X118.978 Y108.529 E14.15161
G1 X118.666 Y108.054 E14.21209
G1 X118.318 Y107.611 E14.27205
G1 X117.917 Y107.169 E14.33557
G1 X117.504 Y106.778 E14.3961
G1 X117.059 Y106.417 E14.45709
G1 X116.584 Y106.086 E14.51871
G1 X116.087 Y105.798 E14.57984
G1 X115.573 Y105.547 E14.64072
G1 X115.049 Y105.338 E14.70077
G1 X114.471 Y105.155 E14.76529
G1 X113.933 Y105.034 E14.82399
G1 X113.361 Y104.946 E14.88558
G1 X112.788 Y104.9 E14.94676
G1 X112.212 Y104.9 E15.00807
G1 X111.635 Y104.946 E15.06967
G1 X111.063 Y105.034 E15.13127
G1 X110.529 Y105.155 E15.18955
G1 X109.951 Y105.337 E15.25404
G1 X109.426 Y105.547 E15.31422
G1 X108.909 Y105.798 E15.37539
G1 X108.412 Y106.086 E15.43653
G1 X107.941 Y106.416 E15.49774
G1 X107.492 Y106.778 E15.55912
G1 X107.079 Y107.168 E15.61958
G1 X106.679 Y107.61 E15.68303
G1 X106.333 Y108.054 E15.74294
G1 X106.017 Y108.53 E15.80375
G1 X105.737 Y109.028 E15.86455
G1 X105.485 Y109.568 E15.92798
G1 X105.292 Y110.075 E15.98572
G1 X105.129 Y110.646 E16.04892
G1 X105.007 Y111.217 E16.11106
G1 X104.931 Y111.786 E16.17216
G1 X104.901 Y112.339 E16.2311
G1 X104.912 Y112.917 E16.29263
G1 X104.969 Y113.514 E16.35646
G1 X105.064 Y114.066 E16.41608
G1 X105.201 Y114.62 E16.47681
G1 X105.387 Y115.175 E16.53911
G1 X105.608 Y115.703 E16.60003
G1 X105.87 Y116.211 E16.66087
G1 X106.166 Y116.697 E16.72143
G1 X106.512 Y117.173 E16.78407
G1 X106.873 Y117.602 E16.84374
G1 X107.28 Y118.017 E16.90561
G1 X107.717 Y118.401 E16.96752
G1 X108.184 Y118.75 E17.02957
G1 X108.655 Y119.05 E17.08901
G1 X109.165 Y119.324 E17.15063
G1 X109.673 Y119.552 E17.20989
G1 X110.244 Y119.753 E17.27432
G1 X110.786 Y119.902 E17.33414
G1 X111.348 Y120.008 E17.39501
G1 X111.923 Y120.072 E17.45659
G1 X112.5 Y120.095 E17.51805
G1 F2700 E12.51805
G0 F6000 X112.5 Y118.796
G0 X112.626 Y118.495
G0 X112.644 Y117.192
G1 F2700 E17.51805
G1 F1200 X112.207 Y117.187 E17.56457
G1 X111.847 Y117.15 E17.60308
G1 X111.428 Y117.075 E17.64839
G1 X111.015 Y116.955 E17.69416
G1 X110.652 Y116.818 E17.73546
G1 X110.286 Y116.641 E17.77873
G1 X109.945 Y116.438 E17.82096
G1 X109.62 Y116.209 E17.86328
G1 X109.282 Y115.921 E17.91054
G1 X109.019 Y115.653 E17.95051
G1 X108.747 Y115.325 E17.99586
G1 X108.517 Y114.993 E18.03884
G1 X108.316 Y114.644 E18.08171
G1 X108.148 Y114.272 E18.12515
G1 X108.012 Y113.904 E18.16691
G1 X107.905 Y113.493 E18.21211
G1 X107.837 Y113.091 E18.2555
G1 X107.805 Y112.72 E18.29514
G1 X107.804 Y112.294 E18.34048
G1 X107.841 Y111.868 E18.38599
G1 X107.904 Y111.504 E18.42531
G1 X108.018 Y111.078 E18.47224
G1 X108.152 Y110.705 E18.51442
G1 X108.315 Y110.349 E18.5561
G1 X108.525 Y109.986 E18.60073
G1 X108.756 Y109.65 E18.64413
G1 X109.003 Y109.355 E18.68508
G1 X109.31 Y109.041 E18.73182
G1 X109.585 Y108.804 E18.77046
G1 X109.926 Y108.564 E18.81484
G1 X110.277 Y108.352 E18.85848
G1 X110.663 Y108.171 E18.90386
G1 X111.039 Y108.026 E18.94675
G1 X111.415 Y107.921 E18.9883
G1 X111.839 Y107.841 E19.03422
G1 X112.204 Y107.805 E19.07326
G1 X112.644 Y107.796 E19.1201
G1 X113.041 Y107.828 E19.16249
G1 X113.417 Y107.885 E19.20296
G1 X113.817 Y107.983 E19.2468
G1 X114.205 Y108.115 E19.29042
G1 X114.58 Y108.28 E19.33402
G1 X114.937 Y108.477 E19.37742
G1 X115.265 Y108.695 E19.41934
G1 X115.596 Y108.958 E19.46433
G1 X115.898 Y109.248 E19.50889
G1 X116.159 Y109.548 E19.55122
G1 X116.401 Y109.877 E19.59468
G1 X116.687 Y110.344 E19.65297
G1 X118.548 Y110.344 E19.85104
G1 X118.704 Y110.375 E19.86797
G1 F1177.9 X118.882 Y110.498 E19.89143
G1 F1107.3 X118.977 Y110.663 E19.91339
G1 F1030 X119.028 Y111.838 E20.05922
G1 F993.8 X119.035 Y112.349 E20.1249
G1 F1002.1 X119.02 Y113.443 E20.26434
G1 F1063.1 X118.979 Y114.244 E20.3607
