;FLAVOR:Marlin
;TIME:16838
;Filament used: 47.4933m
;Layer height: 0.32
;MINX:10.28
;MINY:10.236
;MINZ:0.32
;MAXX:214.721
;MAXY:214.764
;MAXZ:16
;TARGET_MACHINE.NAME:Creality Ender-5
;Generated with Cura_SteamEngine 5.7.1
M140 S50
M105
M190 S50
M104 S200
M105
M109 S200
M82 ;absolute extrusion mode
M201 X500.00 Y500.00 Z100.00 E5000.00 ;Setup machine max acceleration
M203 X500.00 Y500.00 Z10.00 E50.00 ;Setup machine max feedrate
M204 P500.00 R1000.00 T500.00 ;Setup Print/Retract/Travel acceleration
M205 X8.00 Y8.00 Z0.40 E5.00 ;Setup Jerk
M220 S100 ;Reset Feedrate
M221 S100 ;Reset Flowrate

G28 ;Home

G92 E0 ;Reset Extruder
G1 Z2.0 F3000 ;Move Z Axis up
G1 X10.1 Y20 Z0.28 F5000.0 ;Move to start position
G1 X10.1 Y200.0 Z0.28 F1500.0 E15 ;Draw the first line
G1 X10.4 Y200.0 Z0.28 F5000.0 ;Move to side a little
G1 X10.4 Y20 Z0.28 F1500.0 E30 ;Draw the second line
G92 E0 ;Reset Extruder
G1 Z2.0 F3000 ;Move Z Axis up

G92 E0
G92 E0
G1 F2700 E-5
;LAYER_COUNT:50
;LAYER:0
M107
G0 F6000 X42.009 Y39.887 Z0.32
;TYPE:SKIRT
G1 F2700 E0
G1 F1200 X46.427 Y35.846 E0.63725
G1 X46.432 Y35.843 E0.63787
G1 X46.426 Y35.848 E0.6387
G1 X42.018 Y39.88 E1.27452
G1 X42.001 Y39.896 E1.277
G1 X40.848 Y41.084 E1.4532
G1 X42.009 Y39.887 E1.63068
G1 F2700 E-3.36932
G0 F6000 X41.819 Y39.704
G0 X38.054 Y43.583
G0 X34.34 Y47.837
G0 X34.541 Y48.01
G1 F2700 E1.63068
G1 F1200 X33.924 Y48.726 E1.73128
G1 X33.912 Y48.74 E1.73324
G1 X33.919 Y48.731 E1.73446
G1 X34.541 Y48.01 E1.8358
G1 F2700 E-3.1642
G0 F6000 X34.34 Y47.837
G0 X33.71 Y48.568
G0 X30.426 Y52.869
G0 X26.703 Y58.331
G0 X26.924 Y58.479
G1 F2700 E1.8358
G1 F1200 X26.919 Y58.488 E1.8369
G1 X26.807 Y58.677 E1.86028
G1 X26.919 Y58.487 E1.88376
G1 X26.924 Y58.479 E1.88476
G1 F2700 E-3.11524
G0 F6000 X26.695 Y58.345
G0 X23.643 Y63.514
G0 X21.172 Y68.328
G0 X19.317 Y72.451
G0 X19.559 Y72.557
G1 F2700 E1.88476
G1 F1200 X18.723 Y74.455 E2.1055
G1 X18.717 Y74.47 E2.10722
G1 X18.721 Y74.458 E2.10856
G1 X19.559 Y72.557 E2.32968
G1 F2700 E-2.67032
G0 F6000 X19.317 Y72.451
G0 X18.473 Y74.366
G0 X16.589 Y79.441
G0 X14.623 Y85.755
G0 X14.875 Y85.835
G1 F2700 E2.32968
G1 F1200 X13.472 Y91.643 E2.96562
G1 X13.467 Y91.666 E2.96812
G1 X12.699 Y95.937 E3.42999
G1 X13.466 Y91.661 E3.89235
G1 X14.875 Y85.835 E4.53031
G1 F2700 E-0.46969
G0 F6000 X14.618 Y85.774
G0 X13.351 Y91.017
G0 X12.158 Y97.453
G0 X12.419 Y97.499
G1 F2700 E4.53031
G1 F1200 X12.41 Y97.546 E4.5354
G1 X12.407 Y97.57 E4.53797
G1 X11.701 Y103.502 E5.17379
G1 X11.699 Y103.525 E5.17624
G1 X11.345 Y109.489 E5.81212
G1 X11.344 Y109.513 E5.81468
G1 X11.344 Y109.493 E5.81681
G1 X11.698 Y103.502 E6.45556
G1 X12.406 Y97.57 E7.0914
G1 X12.419 Y97.499 E7.09908
G1 F2700 E2.09908
G0 F6000 X12.147 Y97.52
G0 X11.436 Y103.491
G0 X11.116 Y108.893
G0 X11.079 Y115.487
G0 X11.344 Y115.487
G1 F2700 E7.09908
G1 F1200 X11.345 Y115.511 E7.10164
G1 X11.699 Y121.475 E7.73752
G1 X11.701 Y121.498 E7.73997
G1 X12.407 Y127.43 E8.37579
G1 X12.409 Y127.448 E8.37771
G1 X12.406 Y127.43 E8.37966
G1 X11.697 Y121.493 E9.01603
G1 X11.344 Y115.507 E9.65425
G1 X11.344 Y115.487 E9.65637
G1 F2700 E4.65637
G0 F6000 X11.08 Y115.507
G0 X11.436 Y121.509
G0 X12.012 Y126.346
G0 X12.329 Y128.493
G0 X12.588 Y128.446
G1 F2700 E9.65637
G1 F1200 X13.467 Y133.334 E10.18496
G1 X13.472 Y133.357 E10.18747
G1 X14.875 Y139.164 E10.8233
G1 X13.465 Y133.334 E11.46169
G1 X12.588 Y128.446 E11.99024
G1 F2700 E6.99024
G0 F6000 X12.329 Y128.493
G0 X13.21 Y133.4
G0 X14.623 Y139.245
G0 X16.204 Y144.42
G0 X18.266 Y150.073
G0 X18.513 Y149.981
G1 F2700 E11.99024
G1 F1200 X18.714 Y150.523 E12.05177
G1 X18.723 Y150.545 E12.0543
G1 X19.335 Y151.934 E12.21585
G1 X18.721 Y150.542 E12.37777
G1 X18.513 Y149.981 E12.44145
G1 F2700 E7.44145
G0 F6000 X18.473 Y150.634
G0 X20.897 Y156.137
G0 X23.368 Y160.951
G0 X25.515 Y164.655
G0 X25.743 Y164.52
G1 F2700 E12.44145
G1 F1200 X26.919 Y166.512 E12.68766
G1 X26.924 Y166.521 E12.68875
G1 X26.919 Y166.513 E12.68976
G1 X25.743 Y164.52 E12.93605
G1 F2700 E7.93605
G0 F6000 X25.515 Y164.655
G0 X26.701 Y166.664
G0 X29.725 Y171.154
G0 X33.7 Y176.417
G0 X33.909 Y176.256
G1 F2700 E12.93605
G1 F1200 X33.924 Y176.274 E12.93854
G1 X33.919 Y176.269 E12.9393
G1 X33.909 Y176.256 E12.94104
G1 F2700 E7.94104
G0 F6000 X33.71 Y176.432
G0 X37.243 Y180.531
G0 X40.646 Y184.087
G0 X40.835 Y183.903
G1 F2700 E12.94104
G1 F1200 X42.001 Y185.104 E13.1192
G1 X42.018 Y185.12 E13.12168
G1 X46.426 Y189.152 E13.7575
G1 X46.432 Y189.157 E13.75833
G1 X46.427 Y189.154 E13.75895
G1 X42 Y185.104 E14.39755
G1 X40.835 Y183.903 E14.57564
G1 F2700 E9.57564
G0 F6000 X40.646 Y184.087
G0 X41.825 Y185.302
G0 X45.818 Y188.955
G0 X50.929 Y193.149
G0 X51.096 Y192.942
G1 F2700 E14.57564
G1 F1200 X51.101 Y192.946 E14.57632
G1 X55.955 Y196.43 E15.21224
G1 X55.975 Y196.443 E15.21478
G1 X61.027 Y199.631 E15.85059
G1 X61.047 Y199.643 E15.85307
G1 X66.278 Y202.528 E16.48888
G1 X66.293 Y202.536 E16.49069
G1 X66.276 Y202.528 E16.49269
G1 X61.044 Y199.642 E17.12864
G1 X55.955 Y196.433 E17.76897
G1 X51.109 Y192.953 E18.40395
G1 X51.096 Y192.942 E18.40576
G1 F2700 E13.40576
G0 F6000 X50.942 Y193.157
G0 X55.817 Y196.657
G0 X60.902 Y199.865
G0 X66.167 Y202.769
G0 X71.597 Y205.355
G0 X76.613 Y207.389
G0 X80.29 Y208.67
G0 X80.374 Y208.419
G1 F2700 E18.40576
G1 F1200 X82.932 Y209.284 E18.69316
G1 X82.955 Y209.291 E18.69572
G1 X85.959 Y210.112 E19.02717
G1 X82.941 Y209.288 E19.36014
G1 X80.374 Y208.419 E19.64858
G1 F2700 E14.64858
G0 F6000 X80.29 Y208.67
G0 X82.376 Y209.376
G0 X88.667 Y211.126
G0 X88.736 Y210.87
G1 F2700 E19.64858
G1 F1200 X88.741 Y210.871 E19.64913
G1 X94.587 Y212.102 E20.28498
G1 X94.597 Y212.104 E20.28606
G1 X94.589 Y212.103 E20.28692
G1 X88.748 Y210.873 E20.92222
G1 X88.736 Y210.87 E20.92354
G1 F2700 E15.92354
G0 F6000 X88.682 Y211.13
G0 X94.551 Y212.365
G0 X100.5 Y213.253
G0 X106.49 Y213.786
G0 X112.5 Y213.965
G0 X118.51 Y213.786
G0 X123.901 Y213.306
G0 X130.442 Y212.365
G0 X130.403 Y212.104
G1 F2700 E20.92354
G1 F1200 X130.413 Y212.102 E20.92463
G1 X136.259 Y210.871 E21.56048
G1 X136.264 Y210.87 E21.56102
G1 X136.252 Y210.873 E21.56233
G1 X130.411 Y212.103 E22.19764
G1 X130.403 Y212.104 E22.1985
G1 F2700 E17.1985
G0 F6000 X130.458 Y212.363
G0 X135.746 Y211.25
G0 X139.111 Y210.367
G0 X139.041 Y210.112
G1 F2700 E22.1985
G1 F1200 X142.045 Y209.291 E22.52995
G1 X142.068 Y209.284 E22.53251
G1 X144.626 Y208.419 E22.81991
G1 X142.059 Y209.288 E23.10835
G1 X139.041 Y210.112 E23.44132
G1 F2700 E18.44132
G0 F6000 X139.111 Y210.367
G0 X142.134 Y209.541
G0 X147.83 Y207.615
G0 X152.846 Y205.581
G0 X158.821 Y202.775
G0 X158.707 Y202.536
G1 F2700 E23.44132
G1 F1200 X158.722 Y202.528 E23.44313
G1 X163.953 Y199.643 E24.07894
G1 X163.973 Y199.631 E24.08142
G1 X169.025 Y196.443 E24.71722
G1 X169.045 Y196.43 E24.71976
G1 X173.899 Y192.946 E25.35569
G1 X173.904 Y192.942 E25.35637
G1 X173.891 Y192.953 E25.35818
G1 X169.045 Y196.433 E25.99316
G1 X163.956 Y199.642 E26.63349
G1 X158.724 Y202.528 E27.26944
G1 X158.707 Y202.536 E27.27144
G1 F2700 E22.27144
G0 F6000 X158.835 Y202.768
G0 X164.098 Y199.865
G0 X169.183 Y196.657
G0 X173.58 Y193.5
G0 X178.736 Y189.363
G0 X178.568 Y189.157
G1 F2700 E27.27144
G1 F1200 X178.574 Y189.152 E27.27228
G1 X182.982 Y185.12 E27.90809
G1 X182.999 Y185.104 E27.91058
G1 X184.165 Y183.903 E28.08873
G1 X183 Y185.104 E28.26682
G1 X178.573 Y189.154 E28.90542
G1 X178.568 Y189.157 E28.90604
G1 F2700 E23.90604
G0 F6000 X178.747 Y189.352
G0 X183.175 Y185.302
G0 X186.945 Y181.418
G0 X191.277 Y176.447
G0 X191.076 Y176.274
G1 F2700 E28.90604
G1 F1200 X191.091 Y176.256 E28.90853
G1 X191.081 Y176.269 E28.91028
G1 X191.076 Y176.274 E28.91103
G1 F2700 E23.91103
G0 F6000 X191.29 Y176.432
G0 X194.574 Y172.131
G0 X198.297 Y166.669
G0 X198.076 Y166.521
G1 F2700 E28.91103
G1 F1200 X198.081 Y166.512 E28.91213
G1 X199.257 Y164.52 E29.15833
G1 X198.081 Y166.513 E29.40463
G1 X198.076 Y166.521 E29.40563
G1 F2700 E24.40563
G0 F6000 X198.305 Y166.655
G0 X201.357 Y161.486
G0 X203.828 Y156.672
G0 X205.907 Y152.04
G0 X205.665 Y151.934
G1 F2700 E29.40563
G1 F1200 X206.277 Y150.545 E29.56718
G1 X206.286 Y150.523 E29.56971
G1 X206.487 Y149.981 E29.63123
G1 X206.279 Y150.542 E29.69491
G1 X205.665 Y151.934 E29.85684
G1 F2700 E24.85684
G0 F6000 X205.907 Y152.04
G0 X206.527 Y150.634
G0 X208.411 Y145.559
G0 X210.377 Y139.245
G0 X210.125 Y139.165
G1 F2700 E29.85684
G1 F1200 X211.528 Y133.357 E30.49278
G1 X211.533 Y133.334 E30.49529
G1 X212.412 Y128.446 E31.02387
G1 X211.535 Y133.334 E31.55242
G1 X210.125 Y139.165 E32.19092
G1 F2700 E27.19092
G0 F6000 X210.382 Y139.226
G0 X211.649 Y133.983
G0 X212.851 Y127.494
G0 X212.591 Y127.448
G1 F2700 E32.19092
G1 F1200 X212.593 Y127.43 E32.19284
G1 X213.299 Y121.498 E32.82866
G1 X213.301 Y121.475 E32.83111
G1 X213.655 Y115.511 E33.46699
G1 X213.656 Y115.487 E33.46955
G1 X213.656 Y115.507 E33.47168
G1 X213.303 Y121.493 E34.10989
G1 X212.594 Y127.43 E34.74627
G1 X212.591 Y127.448 E34.74821
G1 F2700 E29.74821
G0 F6000 X212.854 Y127.478
G0 X213.564 Y121.509
G0 X213.884 Y116.107
G0 X213.921 Y109.513
G0 X213.656 Y109.513
G1 F2700 E34.74821
G1 F1200 X213.655 Y109.489 E34.75077
G1 X213.301 Y103.525 E35.38665
G1 X213.299 Y103.502 E35.38911
G1 X212.593 Y97.57 E36.02492
G1 X212.59 Y97.546 E36.02749
G1 X212.582 Y97.499 E36.03257
G1 X212.594 Y97.57 E36.04023
G1 X213.302 Y103.502 E36.67607
G1 X213.656 Y109.493 E37.31482
G1 X213.656 Y109.513 E37.31695
G1 F2700 E32.31695
G0 F6000 X213.92 Y109.493
G0 X213.564 Y103.491
G0 X212.924 Y98.117
G0 X212.56 Y95.89
G0 X212.301 Y95.937
G1 F2700 E37.31695
G1 F1200 X211.533 Y91.666 E37.77881
G1 X211.528 Y91.643 E37.78131
G1 X210.125 Y85.836 E38.41715
G1 X211.534 Y91.661 E39.055
G1 X212.301 Y95.937 E39.51737
G1 F2700 E34.51737
G0 F6000 X212.56 Y95.89
G0 X211.79 Y91.6
G0 X210.377 Y85.755
G0 X208.796 Y80.58
G0 X206.53 Y74.378
G0 X206.283 Y74.47
G1 F2700 E39.51737
G1 F1200 X206.277 Y74.455 E39.51909
G1 X205.441 Y72.557 E39.73982
G1 X206.279 Y74.458 E39.96094
G1 X206.283 Y74.47 E39.96228
G1 F2700 E34.96228
G0 F6000 X206.525 Y74.363
G0 X204.103 Y68.863
G0 X201.632 Y64.049
G0 X198.421 Y58.542
G0 X198.193 Y58.677
G1 F2700 E39.96228
G1 F1200 X198.081 Y58.488 E39.98567
G1 X198.076 Y58.479 E39.98676
G1 X198.081 Y58.487 E39.98777
G1 X198.193 Y58.677 E40.01124
G1 F2700 E35.01124
G0 F6000 X198.299 Y58.336
G0 X195.275 Y53.846
G0 X191.297 Y48.579
G0 X191.088 Y48.74
G1 F2700 E40.01124
G1 F1200 X191.076 Y48.726 E40.0132
G1 X190.459 Y48.01 E40.1138
G1 X191.081 Y48.731 E40.21515
G1 X191.088 Y48.74 E40.21636
G1 F2700 E35.21636
G0 F6000 X191.288 Y48.566
G0 X187.756 Y44.469
G0 X184.341 Y40.9
G0 X184.152 Y41.084
G1 F2700 E40.21636
G1 F1200 X182.999 Y39.896 E40.39256
G1 X182.982 Y39.88 E40.39505
G1 X178.574 Y35.848 E41.03086
G1 X178.568 Y35.843 E41.03169
G1 X178.573 Y35.846 E41.03232
G1 X182.991 Y39.887 E41.66956
G1 X184.152 Y41.084 E41.84705
G1 F2700 E36.84705
G0 F6000 X184.341 Y40.9
G0 X183.175 Y39.698
G0 X179.182 Y36.045
G0 X174.076 Y31.856
G0 X173.91 Y32.062
G1 F2700 E41.84705
G1 F1200 X173.899 Y32.054 E41.84849
G1 X169.045 Y28.57 E42.48442
G1 X169.025 Y28.557 E42.48696
G1 X163.973 Y25.369 E43.12276
G1 X163.953 Y25.357 E43.12524
G1 X158.722 Y22.472 E43.76105
G1 X158.701 Y22.461 E43.76357
G1 X157.972 Y22.114 E43.8495
G1 X158.722 Y22.471 E43.93791
G1 X163.955 Y25.357 E44.57396
G1 X169.045 Y28.567 E45.21443
G1 X173.884 Y32.041 E45.84844
G1 X173.91 Y32.062 E45.852
G1 F2700 E40.852
G0 F6000 X174.064 Y31.847
G0 X169.183 Y28.343
G0 X164.098 Y25.135
G0 X158.833 Y22.231
G0 X153.403 Y19.645
G0 X148.387 Y17.611
G0 X144.71 Y16.33
G0 X144.626 Y16.581
G1 F2700 E45.852
G1 F1200 X142.068 Y15.716 E46.13939
G1 X142.045 Y15.709 E46.14195
G1 X139.041 Y14.888 E46.4734
G1 X142.059 Y15.712 E46.80637
G1 X144.626 Y16.581 E47.09481
G1 F2700 E42.09481
G0 F6000 X144.71 Y16.33
G0 X142.624 Y15.624
G0 X136.333 Y13.874
G0 X136.264 Y14.13
G1 F2700 E47.09481
G1 F1200 X136.259 Y14.129 E47.09536
G1 X130.413 Y12.898 E47.73121
G1 X130.403 Y12.896 E47.73229
G1 X130.411 Y12.897 E47.73315
G1 X136.252 Y14.127 E48.36846
G1 X136.264 Y14.13 E48.36977
G1 F2700 E43.36977
G0 F6000 X136.318 Y13.87
G0 X130.449 Y12.635
G0 X124.5 Y11.747
G0 X118.51 Y11.214
G0 X112.5 Y11.035
G0 X106.49 Y11.214
G0 X101.099 Y11.694
G0 X94.558 Y12.635
G0 X94.597 Y12.896
G1 F2700 E48.36977
G1 F1200 X94.587 Y12.898 E48.37086
G1 X88.741 Y14.129 E49.00671
G1 X88.736 Y14.13 E49.00725
G1 X88.748 Y14.127 E49.00857
G1 X94.589 Y12.897 E49.64387
G1 X94.597 Y12.896 E49.64473
G1 F2700 E44.64473
G0 F6000 X94.542 Y12.637
G0 X89.254 Y13.75
G0 X85.889 Y14.633
G0 X85.959 Y14.888
G1 F2700 E49.64473
G1 F1200 X82.955 Y15.709 E49.97618
G1 X82.932 Y15.716 E49.97874
G1 X80.374 Y16.581 E50.26614
G1 X82.941 Y15.712 E50.55458
G1 X85.959 Y14.888 E50.88755
G1 F2700 E45.88755
G0 F6000 X85.889 Y14.633
G0 X82.866 Y15.459
G0 X77.17 Y17.385
G0 X72.154 Y19.419
G0 X66.914 Y21.875
G0 X67.028 Y22.114
G1 F2700 E50.88755
G1 F1200 X66.299 Y22.461 E50.97348
G1 X66.278 Y22.472 E50.976
G1 X61.047 Y25.357 E51.61181
G1 X61.027 Y25.369 E51.61429
G1 X55.975 Y28.557 E52.2501
G1 X55.955 Y28.57 E52.25264
G1 X51.101 Y32.054 E52.88856
G1 X51.09 Y32.062 E52.89001
G1 X51.116 Y32.041 E52.89357
G1 X55.955 Y28.567 E53.52757
G1 X61.045 Y25.357 E54.16805
G1 X66.278 Y22.471 E54.80409
G1 X67.028 Y22.114 E54.8925
G1 F2700 E49.8925
G0 F6000 X91.991 Y56.89
G1 F2700 E54.8925
G1 F1200 X92.077 Y56.829 E54.90372
G1 X92.132 Y56.797 E54.91049
G1 X92.194 Y56.768 E54.91778
G1 X92.266 Y56.742 E54.92593
G1 X92.356 Y56.718 E54.93584
G1 X92.384 Y56.715 E54.93884
G1 X92.494 Y56.705 E54.95059
G1 X92.6 Y56.714 E54.96192
G1 X92.705 Y56.732 E54.97325
G1 X92.871 Y56.792 E54.99204
G1 X93.006 Y56.887 E55.00961
G1 X93.11 Y56.991 E55.02526
G1 X93.174 Y57.081 E55.03702
G1 X93.197 Y57.121 E55.04193
G1 X93.231 Y57.192 E55.05031
G1 X93.259 Y57.271 E55.05923
G1 X93.283 Y57.358 E55.06883
G1 X93.288 Y57.402 E55.07355
G1 X93.295 Y57.499 E55.0839
G1 X93.288 Y57.59 E55.09361
G1 X93.268 Y57.705 E55.10603
G1 X93.208 Y57.871 E55.12482
G1 X93.113 Y58.006 E55.14239
G1 X93.009 Y58.11 E55.15804
G1 X92.923 Y58.171 E55.16927
G1 X92.868 Y58.203 E55.17604
G1 X92.806 Y58.232 E55.18332
G1 X92.734 Y58.258 E55.19147
G1 X92.644 Y58.282 E55.20138
G1 X92.616 Y58.285 E55.20438
G1 X92.506 Y58.295 E55.21614
G1 X92.4 Y58.286 E55.22746
G1 X92.295 Y58.268 E55.2388
G1 X92.129 Y58.208 E55.25759
G1 X91.994 Y58.113 E55.27515
G1 X91.89 Y58.009 E55.29081
G1 X91.828 Y57.921 E55.30227
G1 X91.797 Y57.868 E55.3088
G1 X91.768 Y57.806 E55.31609
G1 X91.742 Y57.734 E55.32423
G1 X91.717 Y57.642 E55.33438
G1 X91.715 Y57.616 E55.33716
G1 X91.705 Y57.506 E55.34891
G1 X91.714 Y57.4 E55.36023
G1 X91.732 Y57.295 E55.37157
G1 X91.792 Y57.129 E55.39036
G1 X91.887 Y56.994 E55.40793
G1 X91.991 Y56.89 E55.42358
G1 F2700 E50.42358
G0 F6000 X99.23 Y76.041
G1 F2700 E55.42358
G1 F1200 X102.455 Y75.025 E55.78346
G1 X105.765 Y74.29 E56.14433
G1 X109.121 Y73.848 E56.5046
G1 X112.5 Y73.702 E56.86457
G1 X115.879 Y73.848 E57.22454
G1 X119.235 Y74.29 E57.58481
G1 X122.545 Y75.025 E57.94569
G1 X125.77 Y76.041 E58.30556
G1 X128.894 Y77.336 E58.66549
G1 X131.9 Y78.9 E59.02614
G1 X134.758 Y80.721 E59.38682
G1 X134.809 Y80.76 E59.39366
G1 X134.799 Y80.753 E59.39496
G1 X131.929 Y78.918 E59.75752
G1 X131.899 Y78.9 E59.76124
G1 X128.904 Y77.343 E60.12051
G1 X128.872 Y77.329 E60.12422
G1 X125.795 Y76.051 E60.47884
G1 X125.761 Y76.038 E60.48272
G1 X122.495 Y75.016 E60.84695
G1 X122.463 Y75.007 E60.85048
G1 X119.253 Y74.295 E61.20043
G1 X119.218 Y74.289 E61.20421
G1 X115.886 Y73.851 E61.5619
G1 X115.851 Y73.848 E61.56564
G1 X112.656 Y73.709 E61.90601
G1 X112.623 Y73.709 E61.90952
G1 X109.144 Y73.849 E62.2801
G1 X109.108 Y73.852 E62.28394
G1 X105.782 Y74.289 E62.64098
G1 X105.747 Y74.295 E62.64476
G1 X102.537 Y75.007 E62.99471
G1 X102.505 Y75.016 E62.99825
G1 X99.239 Y76.038 E63.36248
G1 X99.205 Y76.051 E63.36635
G1 X96.128 Y77.329 E63.72097
G1 X96.096 Y77.343 E63.72469
G1 X93.101 Y78.9 E64.08396
G1 X93.071 Y78.918 E64.08768
G1 X90.201 Y80.753 E64.45024
G1 X90.191 Y80.76 E64.45154
G1 X90.242 Y80.721 E64.45837
G1 X93.1 Y78.9 E64.81905
G1 X96.106 Y77.336 E65.1797
G1 X99.23 Y76.041 E65.53963
G1 F2700 E60.53963
G0 F6000 X99.315 Y76.29
